X:350
T:Sweeney's Dream
Z: id:dc-reel-326
M:C
L:1/8
K:D Major
c|dFF2 ABdf|gfeg fdBc|dFF2 ABdB|AFDF EFD:|!
e|faab afdf|gfed Bdeg|faa2 bgg2|afeg fdde|!
faa2 bgg2|afeg fdBc|dFF2 ABdf|afeg fdd|]!

